X: 7
T: The Quick Scotch
N: aka the Fairy Dance Reel
P: piffero primo a0467
O: strube
%R: march
F: http://ancients.sudburymuster.org/mus/ssp/pdf/struberevF.pdf
Z: 2019 John Chambers <jc:trillian.mit.edu>
M: 2/4
L: 1/16
K: D
de |\
f2fd f2fd | gfed cde2 | f2fd gfed | cABc d2de |\
f2fd f2fd | gfed cde2 |
f2fd gfed | cABc d2 || fg |\
a2af b3a | g2ge a3g | f2fd gfed | cABc d2fg |\
a2af b3a |
g2ge a3g | f2fd gfed | cABc d2 :| de |\
f2fd f2fd | gfed cde2 | f2fd gfed | cABc d2 |]


